X: 20803
M: 6/8
L: 1/8
K: C
V: 1 name="3"
e/f/ |\
gag dfe | c3 Gce | dd^c ddc | dag fd^d |\
eag dfe | c3 Gce | dag fde | c2e c2 H|]
d^fg efg | dba g^fg | ade ded | d^fg dBc |\
d^fg efg | dbg g^fg | ade ded | c2e "^D.C."c2 |]
c/d/ |\
e2e agf | e3 edc | B2c dcB | cdB Acd |\
e2e agf | e3 edc | B2c dBc | A3- "^D.C."A2 |]


